packages/ui-icons/src/Service-logos/24/Mubert.svg

<svg width="32" height="32" viewBox="0 0 32 32" fill="none" xmlns="http://www.w3.org/2000/svg">
<rect x="4" y="4" width="24" height="24" rx="12" fill="black"/>
<path d="M10.9168 14.5739C10.8318 14.576 10.7492 14.6019 10.6782 14.6486C10.6072 14.6953 10.5507 14.7609 10.5152 14.8381L9.62748 16.9517H9.60634L8.71863 14.8381C8.68413 14.7602 8.62791 14.6938 8.5567 14.6469C8.48548 14.6001 8.40228 14.5747 8.31704 14.5739C8.23296 14.5739 8.15232 14.6073 8.09286 14.6668C8.0334 14.7262 8 14.8069 8 14.891V17.459C7.99997 17.4987 8.00796 17.5381 8.02349 17.5747C8.03902 17.6113 8.06176 17.6444 8.09037 17.672C8.11898 17.6997 8.15286 17.7212 8.18999 17.7355C8.22712 17.7497 8.26673 17.7563 8.30647 17.7549C8.38591 17.7521 8.46117 17.7187 8.51638 17.6615C8.57159 17.6043 8.60242 17.5279 8.60238 17.4484V16.0112H8.62351L9.20476 17.4484C9.24254 17.5373 9.30594 17.6129 9.38688 17.6656C9.46781 17.7183 9.56261 17.7457 9.65918 17.7443C9.74324 17.7442 9.82534 17.7189 9.89499 17.6719C9.96464 17.6248 10.0187 17.558 10.0502 17.4801L10.6314 16.0429V17.4378C10.6314 17.4781 10.6394 17.5179 10.6548 17.5551C10.6702 17.5923 10.6927 17.6261 10.7212 17.6546C10.7497 17.683 10.7834 17.7056 10.8206 17.721C10.8578 17.7364 10.8977 17.7443 10.9379 17.7443C11.0146 17.7444 11.0883 17.7147 11.1435 17.6614C11.1987 17.6082 11.2311 17.5356 11.2338 17.459V14.8804C11.2338 14.8392 11.2256 14.7985 11.2095 14.7606C11.1935 14.7227 11.1699 14.6885 11.1404 14.6599C11.1108 14.6313 11.0757 14.6089 11.0373 14.5941C10.9989 14.5794 10.9579 14.5725 10.9168 14.5739Z" fill="white"/>
<path d="M13.5798 15.3031C13.5401 15.3017 13.5005 15.3083 13.4634 15.3225C13.4262 15.3367 13.3923 15.3583 13.3637 15.3859C13.3351 15.4136 13.3124 15.4467 13.2969 15.4833C13.2813 15.5199 13.2733 15.5592 13.2734 15.599V16.7298C13.2752 16.8023 13.2621 16.8745 13.2348 16.9418C13.2076 17.0091 13.1667 17.07 13.1148 17.1208C13.0138 17.2215 12.877 17.278 12.7344 17.278C12.5918 17.278 12.455 17.2215 12.3539 17.1208C12.256 17.0144 12.203 16.8743 12.206 16.7298V15.6096C12.2032 15.5273 12.1686 15.4494 12.1095 15.3922C12.0503 15.335 11.9712 15.303 11.889 15.3031C11.8133 15.3031 11.7407 15.3332 11.6872 15.3867C11.6337 15.4402 11.6036 15.5128 11.6036 15.5884V16.7826C11.5922 17.0605 11.6866 17.3325 11.8678 17.5435C11.9544 17.6385 12.0608 17.7133 12.1795 17.7626C12.2982 17.8119 12.4263 17.8345 12.5547 17.8288C12.7171 17.8304 12.8772 17.7904 13.0197 17.7126C13.1413 17.6353 13.2427 17.5303 13.3156 17.4061H13.3262V17.4695C13.3262 17.5452 13.3563 17.6178 13.4098 17.6713C13.4633 17.7248 13.5359 17.7549 13.6115 17.7549C13.6816 17.7549 13.7488 17.727 13.7984 17.6775C13.8479 17.6279 13.8757 17.5607 13.8757 17.4907V15.599C13.8772 15.5597 13.8706 15.5206 13.8562 15.484C13.8419 15.4475 13.8202 15.4142 13.7924 15.3865C13.7646 15.3587 13.7314 15.3369 13.6948 15.3226C13.6582 15.3082 13.6191 15.3016 13.5798 15.3031Z" fill="white"/>
<path d="M18.4518 15.2292C18.2766 15.2241 18.1021 15.2542 17.9387 15.3178C17.7754 15.3813 17.6264 15.477 17.5007 15.5991C17.3753 15.7191 17.2759 15.8636 17.2087 16.0235C17.1414 16.1835 17.1077 16.3556 17.1096 16.5291C17.1079 16.701 17.1418 16.8714 17.209 17.0297C17.2763 17.1879 17.3756 17.3305 17.5007 17.4485C17.6259 17.5721 17.7745 17.6693 17.9378 17.7347C18.1012 17.8 18.2759 17.8321 18.4518 17.829C18.7152 17.8316 18.9731 17.7542 19.1915 17.607C19.282 17.5482 19.3638 17.4771 19.4346 17.3957C19.4622 17.3623 19.4799 17.322 19.4858 17.2791C19.4917 17.2363 19.4855 17.1926 19.4679 17.1531C19.4503 17.1135 19.4221 17.0797 19.3863 17.0553C19.3506 17.031 19.3087 17.0171 19.2655 17.0152C19.1233 17.0151 18.9854 17.0636 18.8745 17.1526L18.7794 17.2266C18.6585 17.292 18.5212 17.3209 18.3842 17.3096C18.2472 17.2984 18.1165 17.2475 18.0079 17.1632C17.8879 17.0796 17.8017 16.9559 17.7649 16.8144H19.498C19.5709 16.8144 19.6408 16.7855 19.6923 16.7339C19.7438 16.6824 19.7728 16.6125 19.7728 16.5397C19.7767 16.3668 19.7449 16.195 19.6795 16.035C19.614 15.875 19.5163 15.7302 19.3923 15.6097C19.1413 15.3637 18.8032 15.2269 18.4518 15.2292ZM19.1176 16.2755H17.786C17.7754 16.2755 17.7649 16.2755 17.7754 16.2649C17.8047 16.1198 17.8831 15.9892 17.9974 15.895C18.1252 15.7899 18.2863 15.7337 18.4518 15.7365C18.6176 15.7318 18.7793 15.7882 18.9062 15.895C19.0205 15.9892 19.0988 16.1198 19.1281 16.2649C19.1281 16.2755 19.1281 16.2755 19.1176 16.2755Z" fill="white"/>
<path d="M21.2734 15.2292C21.135 15.2287 20.9992 15.2671 20.8815 15.34C20.7638 15.4128 20.6689 15.5172 20.6076 15.6414H20.5971V15.5674C20.5971 15.5318 20.5899 15.4965 20.576 15.4638C20.5621 15.431 20.5417 15.4014 20.516 15.3767C20.4903 15.352 20.4599 15.3328 20.4267 15.3202C20.3934 15.3075 20.3579 15.3017 20.3223 15.3032C20.2522 15.3032 20.185 15.331 20.1355 15.3806C20.0859 15.4301 20.0581 15.4973 20.0581 15.5674V17.4591C20.0581 17.4988 20.0661 17.5382 20.0816 17.5748C20.0971 17.6114 20.1199 17.6445 20.1485 17.6721C20.1771 17.6997 20.211 17.7213 20.2481 17.7355C20.2852 17.7498 20.3248 17.7564 20.3646 17.755C20.4384 17.7522 20.5083 17.721 20.5595 17.6677C20.6108 17.6145 20.6394 17.5435 20.6393 17.4696V16.3494C20.6502 16.2078 20.7144 16.0756 20.819 15.9795C20.8684 15.9331 20.9265 15.897 20.99 15.8734C21.0536 15.8498 21.1212 15.8392 21.1889 15.8421H21.2523C21.2711 15.8399 21.2887 15.8314 21.3021 15.818C21.3155 15.8046 21.324 15.787 21.3263 15.7682V15.2715C21.3238 15.2594 21.3172 15.2485 21.3075 15.2408C21.2978 15.233 21.2858 15.2289 21.2734 15.2292Z" fill="white"/>
<path d="M22.3513 15.7681H22.5415C22.6013 15.7654 22.6578 15.7397 22.6991 15.6964C22.7405 15.6531 22.7635 15.5955 22.7634 15.5356C22.7635 15.5042 22.7571 15.4731 22.7448 15.4441C22.7325 15.4152 22.7144 15.3891 22.6917 15.3674C22.6689 15.3456 22.642 15.3287 22.6126 15.3177C22.5832 15.3066 22.5518 15.3017 22.5204 15.3031H22.3513C22.3452 15.2977 22.3414 15.2901 22.3407 15.282V15.0389C22.3407 14.9604 22.3095 14.8852 22.2541 14.8297C22.1986 14.7742 22.1233 14.743 22.0448 14.743C21.9635 14.743 21.8856 14.7753 21.8281 14.8328C21.7706 14.8903 21.7383 14.9682 21.7383 15.0495V15.282C21.7377 15.2901 21.7339 15.2977 21.7278 15.3031C21.6717 15.3031 21.618 15.3254 21.5783 15.365C21.5387 15.4047 21.5164 15.4584 21.5164 15.5145V15.5568C21.5164 15.6128 21.5387 15.6666 21.5783 15.7062C21.618 15.7458 21.6717 15.7681 21.7278 15.7681H21.7383V17.0151C21.7335 17.1139 21.7488 17.2126 21.7834 17.3053C21.8179 17.3979 21.8709 17.4826 21.9391 17.5541C22.0916 17.6849 22.288 17.7528 22.4887 17.7443C22.5616 17.7443 22.6314 17.7154 22.683 17.6639C22.7345 17.6123 22.7634 17.5424 22.7634 17.4696C22.7607 17.4013 22.7317 17.3368 22.6824 17.2895C22.6332 17.2423 22.5675 17.2159 22.4992 17.2159H22.4887C22.45 17.213 22.4131 17.1982 22.383 17.1737C22.368 17.1585 22.3564 17.1402 22.3491 17.1202C22.3418 17.1001 22.339 17.0787 22.3407 17.0574V15.7787L22.3513 15.7681Z" fill="white"/>
<path d="M23.852 14.648C23.756 14.5539 23.6271 14.5008 23.4927 14.5C23.426 14.4998 23.36 14.5128 23.2983 14.5382C23.2367 14.5636 23.1806 14.6009 23.1334 14.648C23.0861 14.6951 23.0486 14.7511 23.023 14.8127C22.9974 14.8744 22.9842 14.9405 22.9842 15.0073C22.9842 15.074 22.9974 15.1401 23.023 15.2018C23.0486 15.2635 23.0861 15.3195 23.1334 15.3666C23.1799 15.4146 23.2358 15.4526 23.2976 15.478C23.3594 15.5035 23.4259 15.5159 23.4927 15.5145C23.6272 15.5145 23.7563 15.4611 23.8514 15.366C23.9465 15.2708 24 15.1418 24 15.0073C24.0001 14.9406 23.9871 14.8745 23.9618 14.8129C23.9364 14.7512 23.8991 14.6952 23.852 14.648ZM23.7992 15.3243C23.7593 15.365 23.7116 15.3972 23.6589 15.419C23.6062 15.4408 23.5497 15.4517 23.4927 15.4511C23.375 15.4511 23.2621 15.4044 23.1788 15.3211C23.0956 15.2379 23.0488 15.125 23.0488 15.0073C23.0488 14.8895 23.0956 14.7767 23.1788 14.6934C23.2621 14.6102 23.375 14.5634 23.4927 14.5634C23.5497 14.5628 23.6062 14.5737 23.6589 14.5955C23.7116 14.6173 23.7593 14.6495 23.7992 14.6902C23.8427 14.7308 23.8774 14.7798 23.9011 14.8344C23.9249 14.8889 23.9371 14.9478 23.9371 15.0073C23.9371 15.0668 23.9249 15.1256 23.9011 15.1801C23.8774 15.2347 23.8427 15.2838 23.7992 15.3243Z" fill="white"/>
<path d="M23.7675 14.8804C23.7684 14.8526 23.7632 14.825 23.7522 14.7994C23.7413 14.7739 23.7249 14.751 23.7041 14.7325C23.6836 14.7115 23.6588 14.695 23.6315 14.6841C23.6042 14.6731 23.575 14.668 23.5456 14.6691H23.2708C23.2603 14.6691 23.2603 14.6796 23.2603 14.6902V15.3137C23.2603 15.3165 23.2614 15.3192 23.2633 15.3212C23.2653 15.3232 23.268 15.3243 23.2708 15.3243H23.3765V15.1129C23.3765 15.1024 23.3765 15.0918 23.3871 15.0918H23.5139L23.6301 15.3137C23.6301 15.3243 23.6301 15.3243 23.6407 15.3243H23.7464C23.757 15.3243 23.757 15.3137 23.757 15.3032L23.6407 15.0812C23.6407 15.0784 23.6418 15.0757 23.6438 15.0738C23.6458 15.0718 23.6485 15.0707 23.6513 15.0707C23.6864 15.0529 23.716 15.0257 23.7365 14.9921C23.7571 14.9585 23.7678 14.9198 23.7675 14.8804ZM23.5456 14.9755H23.3871C23.3765 14.9755 23.3765 14.965 23.3765 14.9544V14.8065H23.5456C23.609 14.8065 23.6407 14.8276 23.6407 14.891C23.6408 14.9031 23.6383 14.915 23.6334 14.926C23.6285 14.937 23.6213 14.9469 23.6123 14.9549C23.6033 14.9629 23.5927 14.9689 23.5812 14.9724C23.5697 14.976 23.5575 14.9771 23.5456 14.9755Z" fill="white"/>
<path d="M15.5774 15.2186C15.3178 15.2193 15.0641 15.2965 14.8482 15.4405V14.8698C14.8496 14.8306 14.843 14.7914 14.8287 14.7549C14.8143 14.7183 14.7926 14.6851 14.7648 14.6573C14.737 14.6295 14.7038 14.6078 14.6672 14.5934C14.6307 14.5791 14.5915 14.5725 14.5523 14.5739C14.471 14.5739 14.393 14.6062 14.3356 14.6637C14.2781 14.7212 14.2458 14.7991 14.2458 14.8804V17.4273C14.2458 17.5142 14.2803 17.5975 14.3417 17.659C14.4032 17.7204 14.4865 17.7549 14.5734 17.7549C14.6395 17.7557 14.7037 17.7326 14.7542 17.6899C14.8046 17.6472 14.838 17.5877 14.8482 17.5224C15.0602 17.6757 15.3157 17.7572 15.5774 17.7549C15.9137 17.7549 16.2363 17.6213 16.4741 17.3835C16.7119 17.1456 16.8455 16.8231 16.8455 16.4867C16.8455 16.1504 16.7119 15.8278 16.4741 15.59C16.2363 15.3522 15.9137 15.2186 15.5774 15.2186ZM15.5774 17.1525C15.3998 17.1526 15.2293 17.0827 15.1028 16.9582C14.9763 16.8336 14.9038 16.6643 14.901 16.4867C14.901 16.3074 14.9723 16.1353 15.0991 16.0085C15.2259 15.8817 15.398 15.8104 15.5774 15.8104C15.7549 15.8132 15.9242 15.8856 16.0488 16.0122C16.1734 16.1387 16.2432 16.3092 16.2431 16.4867C16.2431 16.6633 16.173 16.8327 16.0481 16.9575C15.9233 17.0824 15.7539 17.1525 15.5774 17.1525Z" fill="white"/>
<path d="M16 27.5C22.3513 27.5 27.5 22.3513 27.5 16C27.5 9.64873 22.3513 4.5 16 4.5C9.64873 4.5 4.5 9.64873 4.5 16C4.5 22.3513 9.64873 27.5 16 27.5Z" stroke="#D8D8D8"/>
</svg>

<svg width="32" height="32" fill="none" xmlns="http://www.w3.org/2000/svg"><rect x="4" y="4" width="24" height="24" rx="12" fill="#000"/><path d="M10.917 14.574a.455.455 0 0 0-.402.264l-.888 2.114h-.02l-.888-2.114a.445.445 0 0 0-.402-.264.317.317 0 0 0-.317.317v2.568a.296.296 0 0 0 .306.296.307.307 0 0 0 .296-.307v-1.437h.022l.58 1.437a.486.486 0 0 0 .455.296.423.423 0 0 0 .391-.264l.581-1.437v1.395a.307.307 0 0 0 .307.306.295.295 0 0 0 .296-.285V14.88a.306.306 0 0 0-.317-.306ZM13.58 15.303a.296.296 0 0 0-.307.296v1.13a.53.53 0 0 1-.158.392.539.539 0 0 1-.761 0 .56.56 0 0 1-.148-.391v-1.12a.317.317 0 0 0-.317-.307.285.285 0 0 0-.285.285v1.195c-.012.277.083.55.264.76a.877.877 0 0 0 .687.286.95.95 0 0 0 .465-.116.907.907 0 0 0 .296-.307h.01v.064a.285.285 0 0 0 .285.285.265.265 0 0 0 .265-.264v-1.892a.284.284 0 0 0-.296-.296ZM18.452 15.23a1.31 1.31 0 0 0-1.243.793c-.068.16-.101.333-.1.506a1.25 1.25 0 0 0 .392.92 1.321 1.321 0 0 0 .95.38 1.3 1.3 0 0 0 .984-.433.233.233 0 0 0-.17-.38.624.624 0 0 0-.39.137l-.096.074a.708.708 0 0 1-.771-.064.613.613 0 0 1-.243-.349h1.733a.274.274 0 0 0 .275-.274 1.259 1.259 0 0 0-.38-.93 1.331 1.331 0 0 0-.941-.38Zm.666 1.046h-1.332c-.01 0-.021 0-.01-.011a.645.645 0 0 1 .221-.37.697.697 0 0 1 .455-.159.676.676 0 0 1 .676.529c0 .01 0 .01-.01.01ZM21.273 15.23a.74.74 0 0 0-.665.411h-.01v-.074a.265.265 0 0 0-.276-.264.264.264 0 0 0-.264.264v1.892a.297.297 0 0 0 .307.296.285.285 0 0 0 .274-.285v-1.12a.56.56 0 0 1 .351-.477.509.509 0 0 1 .199-.03h.063a.084.084 0 0 0 .074-.075v-.497a.053.053 0 0 0-.053-.042ZM22.351 15.768h.19a.232.232 0 1 0-.02-.465h-.17a.032.032 0 0 1-.01-.021v-.243a.296.296 0 0 0-.296-.296.306.306 0 0 0-.307.306v.233a.031.031 0 0 1-.01.021.212.212 0 0 0-.212.211v.043a.211.211 0 0 0 .212.211h.01v1.247a.729.729 0 0 0 .201.54c.153.13.349.198.55.19a.275.275 0 0 0 .274-.275.264.264 0 0 0-.264-.254h-.01a.19.19 0 0 1-.106-.042.15.15 0 0 1-.042-.117V15.78l.01-.01ZM23.852 14.648a.518.518 0 0 0-.554-.11.507.507 0 1 0 .554.11Zm-.053.676a.423.423 0 0 1-.306.127.444.444 0 1 1 .166-.856c.053.022.1.054.14.095a.433.433 0 0 1 0 .634Z" fill="#fff"/><path d="M23.767 14.88a.19.19 0 0 0-.063-.148.21.21 0 0 0-.158-.063h-.275c-.01 0-.01.01-.01.021v.624a.01.01 0 0 0 .002.007.01.01 0 0 0 .008.003h.105v-.211c0-.01 0-.021.011-.021h.127l.116.222c0 .01 0 .01.01.01h.106c.011 0 .011-.01.011-.02l-.116-.223a.01.01 0 0 1 .01-.01.212.212 0 0 0 .116-.19Zm-.221.095h-.159c-.01 0-.01-.01-.01-.02v-.149h.169c.063 0 .095.022.095.085a.084.084 0 0 1-.095.085ZM15.577 15.219c-.26 0-.513.078-.729.222v-.571a.287.287 0 0 0-.18-.277.287.287 0 0 0-.116-.02.306.306 0 0 0-.306.307v2.547a.328.328 0 0 0 .327.328.275.275 0 0 0 .275-.233 1.268 1.268 0 1 0 .73-2.304Zm0 1.934a.676.676 0 0 1-.676-.666.676.676 0 0 1 .676-.677.676.676 0 0 1 .666.677.666.666 0 0 1-.666.666Z" fill="#fff"/><path d="M16 27.5c6.351 0 11.5-5.149 11.5-11.5S22.351 4.5 16 4.5 4.5 9.649 4.5 16 9.649 27.5 16 27.5Z" stroke="#D8D8D8"/></svg>
